images/6603799.svg

<?xml version="1.0" encoding="UTF-8"?>
<svg xmlns="http://www.w3.org/2000/svg" xmlns:xlink="http://www.w3.org/1999/xlink" width="300pt" height="300pt" viewBox="0 0 300 300" version="1.1">
<defs>
<g>
<symbol overflow="visible" id="glyph0-0">
<path style="stroke:none;" d="M 0.796875 2.828125 L 0.796875 -11.28125 L 8.796875 -11.28125 L 8.796875 2.828125 Z M 1.703125 1.9375 L 7.90625 1.9375 L 7.90625 -10.390625 L 1.703125 -10.390625 Z M 1.703125 1.9375 "/>
</symbol>
<symbol overflow="visible" id="glyph0-1">
<path style="stroke:none;" d="M 1.578125 -11.671875 L 3.703125 -11.671875 L 8.875 -1.90625 L 8.875 -11.671875 L 10.40625 -11.671875 L 10.40625 0 L 8.28125 0 L 3.109375 -9.765625 L 3.109375 0 L 1.578125 0 Z M 1.578125 -11.671875 "/>
</symbol>
<symbol overflow="visible" id="glyph0-2">
<path style="stroke:none;" d="M 1.578125 -11.671875 L 3.15625 -11.671875 L 3.15625 -6.890625 L 8.890625 -6.890625 L 8.890625 -11.671875 L 10.46875 -11.671875 L 10.46875 0 L 8.890625 0 L 8.890625 -5.5625 L 3.15625 -5.5625 L 3.15625 0 L 1.578125 0 Z M 1.578125 -11.671875 "/>
</symbol>
<symbol overflow="visible" id="glyph0-3">
<path style="stroke:none;" d="M 6.3125 -10.59375 C 5.164062 -10.59375 4.253906 -10.164062 3.578125 -9.3125 C 2.898438 -8.457031 2.5625 -7.296875 2.5625 -5.828125 C 2.5625 -4.359375 2.898438 -3.195312 3.578125 -2.34375 C 4.253906 -1.488281 5.164062 -1.0625 6.3125 -1.0625 C 7.457031 -1.0625 8.363281 -1.488281 9.03125 -2.34375 C 9.695312 -3.195312 10.03125 -4.359375 10.03125 -5.828125 C 10.03125 -7.296875 9.695312 -8.457031 9.03125 -9.3125 C 8.363281 -10.164062 7.457031 -10.59375 6.3125 -10.59375 Z M 6.3125 -11.875 C 7.945312 -11.875 9.253906 -11.328125 10.234375 -10.234375 C 11.210938 -9.140625 11.703125 -7.671875 11.703125 -5.828125 C 11.703125 -3.984375 11.210938 -2.507812 10.234375 -1.40625 C 9.253906 -0.3125 7.945312 0.234375 6.3125 0.234375 C 4.664062 0.234375 3.351562 -0.3125 2.375 -1.40625 C 1.394531 -2.507812 0.90625 -3.984375 0.90625 -5.828125 C 0.90625 -7.671875 1.394531 -9.140625 2.375 -10.234375 C 3.351562 -11.328125 4.664062 -11.875 6.3125 -11.875 Z M 6.3125 -11.875 "/>
</symbol>
</g>
</defs>
<g id="surface29661">
<rect x="0" y="0" width="300" height="300" style="fill:rgb(100%,100%,100%);fill-opacity:1;stroke:none;"/>
<path style="fill:none;stroke-width:1.2;stroke-linecap:butt;stroke-linejoin:miter;stroke:rgb(0%,0%,0%);stroke-opacity:1;stroke-miterlimit:10;" d="M 84.992188 208.925781 L 107.371094 239.949219 "/>
<path style="fill:none;stroke-width:1.2;stroke-linecap:butt;stroke-linejoin:miter;stroke:rgb(0%,0%,0%);stroke-opacity:1;stroke-miterlimit:10;" d="M 95.292969 172.089844 L 84.992188 208.925781 "/>
<path style="fill:none;stroke-width:1.2;stroke-linecap:butt;stroke-linejoin:miter;stroke:rgb(0%,0%,0%);stroke-opacity:1;stroke-miterlimit:10;" d="M 107.371094 239.949219 L 126.472656 240.871094 "/>
<path style="fill:none;stroke-width:1.2;stroke-linecap:butt;stroke-linejoin:miter;stroke:rgb(0%,0%,100%);stroke-opacity:1;stroke-miterlimit:10;" d="M 126.472656 240.871094 L 145.574219 241.792969 "/>
<path style="fill:none;stroke-width:1.2;stroke-linecap:butt;stroke-linejoin:miter;stroke:rgb(0%,0%,100%);stroke-opacity:1;stroke-miterlimit:10;" d="M 145.574219 241.792969 L 158.207031 227.433594 "/>
<path style="fill:none;stroke-width:1.2;stroke-linecap:butt;stroke-linejoin:miter;stroke:rgb(0%,0%,0%);stroke-opacity:1;stroke-miterlimit:10;" d="M 158.207031 227.433594 L 170.839844 213.074219 "/>
<path style=" stroke:none;fill-rule:nonzero;fill:rgb(100%,100%,100%);fill-opacity:1;" d="M 133.574219 232.292969 L 157.574219 232.292969 L 157.574219 251.292969 L 133.574219 251.292969 Z M 133.574219 232.292969 "/>
<g style="fill:rgb(0%,0%,100%);fill-opacity:1;">
  <use xlink:href="#glyph0-1" x="133.574219" y="247.144531"/>
  <use xlink:href="#glyph0-2" x="145.542969" y="247.144531"/>
</g>
<path style="fill:none;stroke-width:1.2;stroke-linecap:butt;stroke-linejoin:miter;stroke:rgb(0%,0%,0%);stroke-opacity:1;stroke-miterlimit:10;" d="M 170.839844 213.074219 L 164.136719 175.414062 "/>
<path style="fill:none;stroke-width:1.2;stroke-linecap:butt;stroke-linejoin:miter;stroke:rgb(0%,0%,0%);stroke-opacity:1;stroke-miterlimit:10;" d="M 164.136719 175.414062 L 130.515625 157.175781 "/>
<path style="fill:none;stroke-width:1;stroke-linecap:butt;stroke-linejoin:miter;stroke:rgb(0%,0%,0%);stroke-opacity:1;stroke-miterlimit:10;" d="M 164.136719 175.414062 L 164.136719 175.414062 M 166.835938 174.109375 L 166.226562 173.261719 M 169.539062 172.804688 L 168.316406 171.113281 M 172.238281 171.496094 L 170.410156 168.960938 M 174.941406 170.191406 L 172.5 166.808594 M 177.640625 168.886719 L 174.589844 164.660156 M 180.339844 167.582031 L 176.679688 162.507812 M 183.042969 166.277344 L 178.773438 160.355469 M 185.742188 164.96875 L 180.863281 158.203125 M 188.445312 163.664062 L 182.953125 156.054688 M 191.144531 162.359375 L 185.046875 153.902344 M 193.847656 161.054688 L 187.136719 151.75 M 196.546875 159.746094 L 189.226562 149.601562 M 199.105469 158.511719 L 191.207031 147.5625 "/>
<path style="fill:none;stroke-width:1.2;stroke-linecap:butt;stroke-linejoin:miter;stroke:rgb(0%,0%,0%);stroke-opacity:1;stroke-miterlimit:10;" d="M 130.515625 157.175781 L 135.210938 119.214844 "/>
<path style="fill:none;stroke-width:1.2;stroke-linecap:butt;stroke-linejoin:miter;stroke:rgb(0%,0%,0%);stroke-opacity:1;stroke-miterlimit:10;" d="M 122.050781 152.273438 L 125.808594 121.90625 "/>
<path style="fill:none;stroke-width:1.2;stroke-linecap:butt;stroke-linejoin:miter;stroke:rgb(0%,0%,0%);stroke-opacity:1;stroke-miterlimit:10;" d="M 95.292969 172.089844 L 130.515625 157.175781 "/>
<path style="fill:none;stroke-width:1.2;stroke-linecap:butt;stroke-linejoin:miter;stroke:rgb(0%,0%,0%);stroke-opacity:1;stroke-miterlimit:10;" d="M 135.210938 119.214844 L 104.683594 96.167969 "/>
<path style="fill:none;stroke-width:1.2;stroke-linecap:butt;stroke-linejoin:miter;stroke:rgb(0%,0%,0%);stroke-opacity:1;stroke-miterlimit:10;" d="M 104.683594 96.167969 L 69.460938 111.082031 "/>
<path style="fill:none;stroke-width:1.2;stroke-linecap:butt;stroke-linejoin:miter;stroke:rgb(0%,0%,0%);stroke-opacity:1;stroke-miterlimit:10;" d="M 104.667969 105.945312 L 76.492188 117.878906 "/>
<path style="fill:none;stroke-width:1.2;stroke-linecap:butt;stroke-linejoin:miter;stroke:rgb(0%,0%,0%);stroke-opacity:1;stroke-miterlimit:10;" d="M 104.683594 96.167969 L 107.03125 77.1875 "/>
<path style="fill:none;stroke-width:1.2;stroke-linecap:butt;stroke-linejoin:miter;stroke:rgb(100%,0%,0%);stroke-opacity:1;stroke-miterlimit:10;" d="M 107.03125 77.1875 L 109.378906 58.207031 "/>
<path style="fill:none;stroke-width:1.2;stroke-linecap:butt;stroke-linejoin:miter;stroke:rgb(0%,0%,0%);stroke-opacity:1;stroke-miterlimit:10;" d="M 69.460938 111.082031 L 64.765625 149.042969 "/>
<path style="fill:none;stroke-width:1.2;stroke-linecap:butt;stroke-linejoin:miter;stroke:rgb(0%,0%,0%);stroke-opacity:1;stroke-miterlimit:10;" d="M 69.460938 111.082031 L 54.195312 99.558594 "/>
<path style="fill:none;stroke-width:1.2;stroke-linecap:butt;stroke-linejoin:miter;stroke:rgb(100%,0%,0%);stroke-opacity:1;stroke-miterlimit:10;" d="M 54.195312 99.558594 L 38.933594 88.035156 "/>
<path style="fill:none;stroke-width:1.2;stroke-linecap:butt;stroke-linejoin:miter;stroke:rgb(0%,0%,0%);stroke-opacity:1;stroke-miterlimit:10;" d="M 64.765625 149.042969 L 95.292969 172.089844 "/>
<path style="fill:none;stroke-width:1.2;stroke-linecap:butt;stroke-linejoin:miter;stroke:rgb(0%,0%,0%);stroke-opacity:1;stroke-miterlimit:10;" d="M 73.238281 144.164062 L 97.660156 162.601562 "/>
<path style=" stroke:none;fill-rule:nonzero;fill:rgb(100%,100%,100%);fill-opacity:1;" d="M 13.933594 78.535156 L 38.933594 78.535156 L 38.933594 97.535156 L 13.933594 97.535156 Z M 13.933594 78.535156 "/>
<g style="fill:rgb(100%,0%,0%);fill-opacity:1;">
  <use xlink:href="#glyph0-2" x="13.933594" y="93.386719"/>
  <use xlink:href="#glyph0-3" x="25.964844" y="93.386719"/>
</g>
<path style=" stroke:none;fill-rule:nonzero;fill:rgb(100%,100%,100%);fill-opacity:1;" d="M 97.378906 48.707031 L 122.378906 48.707031 L 122.378906 67.707031 L 97.378906 67.707031 Z M 97.378906 48.707031 "/>
<g style="fill:rgb(100%,0%,0%);fill-opacity:1;">
  <use xlink:href="#glyph0-3" x="97.378906" y="63.558594"/>
  <use xlink:href="#glyph0-2" x="109.972656" y="63.558594"/>
</g>
<path style="fill:none;stroke-width:1.2;stroke-linecap:butt;stroke-linejoin:miter;stroke:rgb(0%,0%,0%);stroke-opacity:1;stroke-miterlimit:10;" d="M 195.15625 153.035156 L 230.046875 168.710938 "/>
<path style="fill:none;stroke-width:1.2;stroke-linecap:butt;stroke-linejoin:miter;stroke:rgb(0%,0%,0%);stroke-opacity:1;stroke-miterlimit:10;" d="M 202.332031 146.394531 L 230.246094 158.933594 "/>
<path style="fill:none;stroke-width:1.2;stroke-linecap:butt;stroke-linejoin:miter;stroke:rgb(0%,0%,0%);stroke-opacity:1;stroke-miterlimit:10;" d="M 191.285156 114.984375 L 195.15625 153.035156 "/>
<path style="fill:none;stroke-width:1.2;stroke-linecap:butt;stroke-linejoin:miter;stroke:rgb(0%,0%,0%);stroke-opacity:1;stroke-miterlimit:10;" d="M 230.046875 168.710938 L 261.066406 146.335938 "/>
<path style="fill:none;stroke-width:1.2;stroke-linecap:butt;stroke-linejoin:miter;stroke:rgb(0%,0%,0%);stroke-opacity:1;stroke-miterlimit:10;" d="M 261.066406 146.335938 L 257.199219 108.28125 "/>
<path style="fill:none;stroke-width:1.2;stroke-linecap:butt;stroke-linejoin:miter;stroke:rgb(0%,0%,0%);stroke-opacity:1;stroke-miterlimit:10;" d="M 251.726562 143.441406 L 248.632812 112.996094 "/>
<path style="fill:none;stroke-width:1.2;stroke-linecap:butt;stroke-linejoin:miter;stroke:rgb(0%,0%,0%);stroke-opacity:1;stroke-miterlimit:10;" d="M 257.199219 108.28125 L 222.308594 92.605469 "/>
<path style="fill:none;stroke-width:1.2;stroke-linecap:butt;stroke-linejoin:miter;stroke:rgb(0%,0%,0%);stroke-opacity:1;stroke-miterlimit:10;" d="M 222.308594 92.605469 L 191.285156 114.984375 "/>
<path style="fill:none;stroke-width:1.2;stroke-linecap:butt;stroke-linejoin:miter;stroke:rgb(0%,0%,0%);stroke-opacity:1;stroke-miterlimit:10;" d="M 224.472656 102.140625 L 199.65625 120.042969 "/>
</g>
</svg>

<svg xmlns="http://www.w3.org/2000/svg" xmlns:xlink="http://www.w3.org/1999/xlink" width="300pt" height="300pt" viewBox="0 0 300 300"><defs><symbol overflow="visible"><path d="M.797 2.828v-14.11h8V2.83zm.906-.89h6.203v-12.33H1.703zm0 0"/></symbol><symbol overflow="visible" id="a"><path d="M1.578-11.672h2.125l5.172 9.766v-9.766h1.53V0H8.282L3.11-9.766V0H1.577zm0 0"/></symbol><symbol overflow="visible" id="b"><path d="M1.578-11.672h1.578v4.78H8.89v-4.78h1.58V0H8.89v-5.563H3.157V0H1.578zm0 0"/></symbol><symbol overflow="visible" id="c"><path d="M6.313-10.594c-1.15 0-2.06.43-2.735 1.28-.68.857-1.015 2.017-1.015 3.486 0 1.47.335 2.633 1.015 3.484.676.856 1.586 1.28 2.735 1.28 1.144.002 2.05-.424 2.718-1.28.665-.85 1-2.015 1-3.484 0-1.47-.335-2.63-1-3.484-.667-.852-1.573-1.282-2.717-1.282zm0-1.28c1.632 0 2.94.546 3.92 1.64.978 1.093 1.47 2.562 1.47 4.406 0 1.844-.492 3.32-1.47 4.422-.98 1.093-2.288 1.64-3.92 1.64-1.65 0-2.96-.546-3.938-1.64-.98-1.102-1.47-2.578-1.47-4.422 0-1.844.49-3.313 1.47-4.406.977-1.094 2.29-1.64 3.938-1.64zm0 0"/></symbol></defs><g><path fill="#fff" d="M0 0h300v300H0z"/><path d="M84.992 208.926l22.38 31.023M95.293 172.09l-10.3 36.836M107.37 239.95l19.103.92" stroke-width="1.2" stroke="#000" stroke-miterlimit="10" fill="none"/><path d="M126.473 240.87l19.1.923M145.574 241.793l12.633-14.36" stroke-width="1.2" stroke="#00f" stroke-miterlimit="10" fill="none"/><path d="M158.207 227.434l12.633-14.36" stroke-width="1.2" stroke="#000" stroke-miterlimit="10" fill="none"/><path d="M133.574 232.293h24v19h-24zm0 0" fill="#fff"/><g fill="#00f"><use xlink:href="#a" x="133.574" y="247.145"/><use xlink:href="#b" x="145.543" y="247.145"/></g><path d="M170.84 213.074l-6.703-37.66M164.137 175.414l-33.62-18.238" stroke-width="1.2" stroke="#000" stroke-miterlimit="10" fill="none"/><path d="M164.137 175.414m2.7-1.305l-.61-.848m3.312-.457l-1.224-1.692m3.922.383l-1.828-2.535m4.53 1.23l-2.44-3.38m5.14 2.077l-3.05-4.227m5.75 2.922l-3.66-5.074m6.363 3.77l-4.27-5.923m6.97 4.614l-4.88-6.767m7.582 5.46l-5.492-7.608m8.192 6.304l-6.098-8.458m8.8 7.153l-6.71-9.305m9.41 7.996l-7.32-10.144m9.878 8.91l-7.898-10.95" stroke="#000" stroke-miterlimit="10" fill="none"/><path d="M130.516 157.176l4.695-37.96M122.05 152.273l3.76-30.367M95.293 172.09l35.223-14.914M135.21 119.215l-30.526-23.047M104.684 96.168L69.46 111.082M104.668 105.945L76.492 117.88M104.684 96.168l2.347-18.98" stroke-width="1.2" stroke="#000" stroke-miterlimit="10" fill="none"/><path d="M107.03 77.188l2.35-18.98" stroke-width="1.2" stroke="#f00" stroke-miterlimit="10" fill="none"/><path d="M69.46 111.082l-4.694 37.96M69.46 111.082L54.196 99.56" stroke-width="1.2" stroke="#000" stroke-miterlimit="10" fill="none"/><path d="M54.195 99.56l-15.26-11.525" stroke-width="1.2" stroke="#f00" stroke-miterlimit="10" fill="none"/><path d="M64.766 149.043l30.527 23.047M73.238 144.164l24.422 18.438" stroke-width="1.2" stroke="#000" stroke-miterlimit="10" fill="none"/><path d="M13.934 78.535h25v19h-25zm0 0" fill="#fff"/><g fill="#f00"><use xlink:href="#b" x="13.934" y="93.387"/><use xlink:href="#c" x="25.965" y="93.387"/></g><path d="M97.38 48.707h25v19h-25zm0 0" fill="#fff"/><g fill="#f00"><use xlink:href="#c" x="97.379" y="63.559"/><use xlink:href="#b" x="109.973" y="63.559"/></g><path d="M195.156 153.035l34.89 15.676M202.332 146.395l27.914 12.54M191.285 114.984l3.87 38.05M230.047 168.71l31.02-22.374M261.066 146.336L257.2 108.28M251.727 143.44l-3.094-30.444M257.2 108.28l-34.89-15.675M222.31 92.605l-31.025 22.38M224.473 102.14l-24.817 17.903" stroke-width="1.2" stroke="#000" stroke-miterlimit="10" fill="none"/></g></svg>
